build/img/logo-desktop.svg

<svg width="187" height="97" fill="none" xmlns="http://www.w3.org/2000/svg"><path d="M186.6 0H0l80.5 90.5c7.1 7.9 18.6 7.9 25.7 0L186.6 0z" fill="#81B3D3"/><path d="M43.2.7l49.6 58.4 49.3-58L43.2.7z" fill="#23A9E1"/><path d="M122 17.3c-5.1 0-10.1.1-15.2.1 6-6.9 8.7-6.2 15.2-.1zm-41.2 5.4h26.7c-2-1.2-6.7-7.1-9.3-4.9-.2.2-7.5-8.9-12.3-4.5-4.2 3.8-6.1-.5-10.9 2.5-5.3 3.6 3.2 5.7 5.8 6.9z" fill="#fff"/><path d="M93.1 0H42.2v22.5L92.8 84l.3-.4 50.7-60.4V0H93.1zM54.9 1.8h5.5V19l-5.5-6.5V1.8zm-.8 9.8l-5-5.9V1.8h5v9.8zm19.3-2.7l-5.7-7.1h5.7v7.1zm-6.6 3.8L61.2 1.8h5.6v10.9zm-5.7-9.3l5.5 10.7c-2.8 2.1-4.7 4-5.5 4.9V3.4zm6.5-.5l5.6 6.9c-1.1.6-2.2 1.3-3.1 1.9-.9.6-1.7 1.2-2.5 1.8V2.9zm6.6-.2L79 6.9c-1.7.7-3.3 1.5-4.8 2.3V2.7zm5.6 3.9l-5.4-4.8h6v4.6c-.3 0-.4.1-.6.2zm19.1-4.8h5l-5 2.4V1.8zm-5.8 0h4.4l-4.4 2.1V1.8zm-.9 2l-4.2-2h4.2v2zm-5.5.5l-5.1-2.5h5.1v2.5zm-5.6-1.9l4.7 2.3c-1.6.4-3.2.8-4.7 1.3V2.4zm6.4 0L90.9 4c-1.2.1-2.3.2-3.5.4v-2h.1zm10.4.1v1.9c-1.1-.2-2.2-.3-3.4-.4l3.4-1.5zm6.5-.1v3.7c-1.5-.5-3.1-1-4.8-1.4l4.8-2.3zm.7-.6h5.9l-5.4 4.8c-.2-.1-.3-.1-.5-.2V1.8zm13.6 0h5.6l-5.6 10.9V1.8zm-6.6 0h5.7l-5.7 7v-7zm-.8.9v6.5c-1.5-.8-3.1-1.6-4.8-2.3l4.8-4.2zm6.6.2v10.5c-.7-.5-1.5-1-2.3-1.6-1-.7-2.2-1.4-3.4-2.1l5.7-6.8zm6.4.5v15.2c-1.1-1-2.9-2.7-5.5-4.6l5.5-10.6zm.8 16V1.8h5.5v11.4l-5.5 6.2c.1.1 0 .1 0 0zm6.3-17.6h5v4.7l-5 5.8V1.8zm-83 0v2.9l-2.5-2.9h2.5zM61.2 20l.1.1s3.6-3.9 9.2-7.6C75.8 9 83.8 4.9 92.8 5c8.9 0 17.1 4.2 22.3 7.7 5.6 3.7 9.3 7.5 9.4 7.6l-3.9 4.5c-6.9.9-11.9 6.1-18.6 5-3.4-.6-3.5-2.5-4.5-4.5-.7-1.5-1.9-1.3-3.5-1.9-1.4-.6-2.3-1.7-5.2-1.1-2.5.6-2.8 4.5-6 4.3-1.7-.1-1.8-2.5-4.2-5.5-6.3-7.6-12.2-6.5-16.2.5l30.3 35.9L61.2 20zm75.9-14.5V1.8h3.2l-3.2 3.7z" fill="#491213"/><path d="M88.7 70.9l4.1-6.5 4 6.5-4 6.5-4.1-6.5z" fill="#23A9E1"/><path d="M65.5 32.3c.5.6.9 1.3.8 2.1-.1.6-.9 1.6-.3 1.8.7-.9 1.5-1.9 2.2-2.8-.6-.2-5.4-5.8-5.4-6.5-1.1.6-2.1 1.2-3.2 1.7.2.7 1.3 0 1.9 0 .8.1 1.4.6 2 1.2-1.7 1.4-5.9 5-6.4 5.1-.2 0-1.1-.6-1.1-.1 0 .3.9 1 1 1.2.7.9 1.5 1.8 2.2 2.7.6-.3-.1-.7.2-1.2.3-.4 4.9-4.3 6.1-5.2zm-5.3-7c.4-.1.6.4 1-.1-.8-1-1.6-1.9-2.4-2.9-.4-.4-.8-.9-.7 0 .1.6-6.1 5.7-6.5 5.8-.5.2-.8-.4-1.1.1.7.9 1.5 1.7 2.2 2.6.2.3.5.6.7.9.3.3.2-.7.2-.6-.1-.5.5-.9.9-1.2 1.5-1.3 5.3-4.6 5.7-4.6zm-8.8-.9c-1.8.5-3.7-.2-4.2-2s.6-3.8 2.1-4.8c1.4-1 3.6-1 4.4.8.3.8.2 1.7-.1 2.5-.2.5-.6 1 .1 1.3.9-1.1 1.7-2.2 2.6-3.3-1.1-.6-1.5-1.7-2.3-2.6-.9-1.1-2.1-2.1-3.5-2.3-2.9-.4-5.6 2.6-5.8 5.2-.1 1.5.4 2.8 1.2 4 .8 1 1.9 1.6 2.4 2.8.3.1 2.7-1 3.3-1.3-.1-.1-.1-.2-.2-.3-.7.2 0 0 0 0zm39.3 36.4c-1.2-.8-4-4.7-4.6-5.3-.1-.1-.2-.3-.3-.4 0 0-.3.2-.2.2-.2.1.1.6-.1.9-.8 1.2-5.8 5-6 5.2-.6.4-1.2-.2-1.5.3.7.9 2.8 3.5 3 3.6.5.1.1-.8.2-1 .1-.4 2.6-2.4 3.5-3.2.3-.3.7.4.9.7.3.5.5 1 .3 1.6-.1.4-.7.9-.3 1.2.6-.7 2.4-2.8 2.6-3 .3-.3-.6 0-.5-.1-.4.2-.7.2-1.1 0-.1-.1-1.1-1.1-1-1.2.4-.4 1-1 1.5-1.1.9-.2 1.6 1.5 1.7 2.1.1.6.1 1.2-.1 1.8-.1.4-.5.7 0 .9.7-1 1.4-1.9 2.1-2.9.2-.2 0-.3-.1-.3-.1-.1.2 0 0 0zm-10.2-4.2c2.2-1.9 2.5-5.1.8-7.3-1.9-2.5-5.4-3.1-7.8-1.1-2.2 1.9-2.5 5-.8 7.3 2 2.7 5.2 3 7.8 1.1 1.2-.9-.1.1 0 0zm-.5-4.7c-.6 1.5-2.2 3.1-3.7 3.7-1.8.7-3.1-.8-2.4-2.6.7-1.5 2.2-3.1 3.7-3.7 1.9-.7 3.1.9 2.4 2.6-.4.9.1-.2 0 0zM74.1 42c.5.1.9.5 1.3 0-.7-.9-1.5-1.8-2.2-2.6-.6.3 0 .5-.2 1-.2.4-2.6.8-3.2.9.2-.6.9-2.6 1.2-2.8.5-.4.9.4 1.3-.1l-2.7-3.3c-.3-.4-.6-1-1-.7 0 0 0 1.5-.1 1.7-.1.2-.9 3.6-1.9 4.5-.5.4-2.2 1.9-2.7 2.1-.5.2-.8-.6-1.2 0 .8 1 1.7 2 2.5 3 .1.1.6.9.8.9.5.1.1-.9.1-1.1.2-.4 2.5-2.7 3.5-2.9 1.2-.2 3-.7 4.5-.6.3.1-.4 0 0 0z" fill="#fff"/><path d="M67.8 22.9c-4-.2-2.4-4 .4-4.8 2.6-.8 8.1 1.7 9.8 3.4-2.8.9-6.4.7-9.4.9-.2-3.2-1-2.1-.8.5zm9.5 12.5c-8.6-.1-2.8-13.3.1-12.5 3.4 1.1 3 12.6-.1 12.5zm6.1-4.3c-.8 2.5-2.4 3-2.2-.1.2-3.5 2.5-2.7 4.9-4 2-1.1 3.1-5.2 6.6-2.8 1.6 1.1 3.4.2 3.9 1.8 0-.1-4.5 10.3-2 10.3-5 0-2.8-5.9-.9-9.9-1.8.9-4.8 6.7-2.4 7.6-1.3 1.7-5.2 3.9-7.2 2.3-1.5-1.1-.7-3.2-.7-5.2zm4.1 9.6c-3.5 1-8.1-1.2-2.5-2.3 3.5-.7 7.2.7 2.5 2.3.1 0-.1 0 0 0zm4.4-.1c-.7-1.7.6-3.6 2.7-2.2 1.8 1.2-.9 3.1-2.7 2.2zm-3 4.6c-2.4-.7-10.5-.6-5.2-2.8 1.7-.6 10.2.2 5.2 2.8zm10.5 3.3c-1.4-1.2-2.9-1.3-4.2 0-1.8-3.3-8.3-2.2-11.4-2.7 1.6 4.1 14.8 4.9 15.6 2.7zM97.5 51c-3.2-.1-6.7-.6-9.6.1 1.9.5 6.4 1.8 2.2 2.9 1.5 2.2 4 2 5.6.1-.7-.3-1-.7-1.6-1.1 1.6-.3 3.2-1.2 3.4-2zm3.6-3.9c-5.3-3.1-4-5.4.4-7.6 2.3-1.1 7.3-5.2 9.4-3.9-3.3 3.9-6.6 7.7-9.8 11.5z" fill="#DC6243"/><path d="M97.3 39.8c-4.5-4.6 6.7-4.2 8.5-5.8 1.3.4 10.8-8.3 13.1-7.7-1.7 1.9-5.2 8.1-7.8 8.1-2 0-4-.3-5.5 1.1-2.2 2.1-5.9 3.1-8.3 4.3z" fill="#F49774"/><path d="M98.8 34.2c-2.5 1.3-4.8-3.9-.5-3.4 2.8.3 5.7-.2 8.3.2-2 2.3-4.7 3.6-7.8 3.2z" fill="#F4B1A4"/><path d="M111.4 52.5c.2.6.3 1.3.2 2-.1.9-1 2.9-2.2 2.3-1.2-.6-2.2-1.7-3.2-2.6.8-.9 1.5-1.7 2.9-1.3.4.1.7 0 .3-.3-.4-.2-3.1-2-3.3-1.8-.3.3.5.9.2 1.5-.2.4-.6.8-.9 1.2-.7-.6-1.9-1.3-1.1-2.3.5-.7 1.3-1.2 2.1-1.3.6-.1 1.8.4 2-.2-1.1-.5-2.2-1-3.3-1.6.2.8-3.3 4.5-4.1 5.5-.1.1-.7.6-.7.8 0 .4.6.1.7.1.5-.2 6.8 5.1 7 5.5.1.3-.2.6 0 .7 0 0 .2.2.3.2.4-.5 4.5-6 5.4-6.2-.8-1.2-1.6-2.4-2.4-3.7-.6.3 0 1 .1 1.5zm-6.2 6.7c-2.1-1.3-5.6 1.3-6.1 1.5-1 .5-1.8-.5-1.3-1.5.5-.8 1.4-1.2 2.3-1.3.3 0 1.3.2 1.5 0 .1-.2.2-.2 0-.3-.9-.6-1.7-1.2-2.6-1.7-.2 1.1-1.4 1.7-2.1 2.4-.8.9-1.5 1.9-1.5 3.2 0 1.1.7 2.1 1.7 2.7 1.1.6 2.3.1 3.3-.5.6-.4 1.3-.9 1.9-1.2 1-.5 2.3-.1 2 1.3-.3 1.1-1.4 2.1-2.4 2.3-.6.2-1.3.1-1.9-.1-.4-.1-1-.7-1.2-.1 1.2.8 2.3 1.7 3.5 2.5.1-.8.5-1.1 1.1-1.6.7-.6 1.4-1.3 2-2.1 1.2-1.7 1.6-4.1-.2-5.5zm0 0c1 .6-.6-.5 0 0zm36.7-39.6c-.7.7-8.4-2.3-9-2.8-.3-.1-.3-1.3-.7-.8l-1.2 1.5c-.4.5-.8 1-1.3 1.5-.3.3-.5.5 0 .7.8-.4 5.4 7.3 5 8.5-.7.4-6.9-5.1-7.1-5.4-.1-.1.3-1-.2-.9-.2 0-.7.9-.9 1.1-.3.4-.6.7-.9 1.1.3.5.5 0 1 0 .4.1 1.8 1.3 2.2 1.7-.7 0-2.7.1-2.9.1-.9.1-.4-.7-1-.9-.8.9-1.5 1.8-2.3 2.8-.4.5-.9 1.1-1.3 1.6-.1.1 0 0 0 .1.3.3.1.2.6 0s6.6 4.9 6.8 5.2c.4.4-.2 1 .4 1.2.6-.7 1.2-1.5 1.8-2.2.1-.1.1-.1 0-.2-.4-.4-.5.2-1 .2-.5-.1-4.4-3.4-5.9-4.6 1.8-.1 7.3-.3 8.2-.3.3 0 1.1.9 1.1 1.2-.1.4-.5.6.1.8.5-.6 1-1.1 1.5-1.7l.2-.3c.1-.1.1-.1.2-.3l.2-.2c.4-.5 1.8-2 1.6-2.1-.5-.4-.7.5-1.3-.1-.3-.2-1.2-1.8-1.4-2.2-.3-.4.6-.9 1-1.1.8-.5 3.2-1.2 3.5.3 0 .3-.3.5-.1.7 0 0 .2.2.3.2.2-.2 2.4-2.8 3.3-4-.3-.2-.4-.3-.5-.4zm-7.4 2.2c.1 0 .2-.1 0 0-.3.2-.7.5-1 .8-.5-.9-1-1.8-1.6-2.7 1.2.5 2.4 1 3.5 1.5-.2.1-.5.2-.9.4zM124.8 33c-2.4-2-5.6-1.4-7.6.8-1.9 2.3-1.7 5.7.6 7.6 2.3 1.9 5.7 1.4 7.6-.8 1.9-2.3 1.8-5.7-.6-7.6zm-.3 6.6s0 .1 0 0c-1.3 1.3-3.4.1-4.5-.7-1.1-.8-3.1-2.6-1.9-4.1 1.1-1.3 3.1-.2 4.2.5 1.2.8 3.4 2.6 2.3 4.2l-.1.1z" fill="#fff"/><path d="M124.8 33c1.2 1-.3-.2 0 0zm-.3 6.7c0-.1 0-.1 0 0l.1-.1c-.1 0-.1.1-.1.1zm-6.3 2.4c.1.1.3.3 0 0-2.9-2.2-6.3-1.6-8.5 1.1l-3 3.6c.4.5.8-.1 1.3.2.4.3 6.2 5.1 6.3 5.4.2.5-.3.5.1.9.2.1 4.5-5.2 4.9-6.2.9-1.8.3-3.7-1.1-5zm-1.3 6.8c-.2.3 0 .1-.7.7-.3.3-6.4-4.7-6.2-4.9.8-.9 2.6-1.6 3.6-1.3 2.2.5 5.2 3.2 3.3 5.5z" fill="#fff"/></svg>

<svg width="187" height="97" viewBox="0 0 187 97" fill="none" xmlns="http://www.w3.org/2000/svg">
<path d="M186.6 0H0L80.5 90.5C87.6 98.4 99.1 98.4 106.2 90.5L186.6 0Z" fill="#81B3D3"/>
<path d="M43.2 0.700012L92.8 59.1L142.1 1.10001L43.2 0.700012Z" fill="#23A9E1"/>
<path d="M122 17.3C116.9 17.3 111.9 17.4 106.8 17.4C112.8 10.5 115.5 11.2 122 17.3Z" fill="white"/>
<path d="M80.8 22.7C89.7 22.7 98.6 22.7 107.5 22.7C105.5 21.5 100.8 15.6 98.2 17.8C98 18 90.7 8.89997 85.9 13.3C81.7 17.1 79.8 12.8 75 15.8C69.7 19.4 78.2 21.5 80.8 22.7Z" fill="white"/>
<path d="M93.1 0H42.2V22.5L92.8 84L93.1 83.6L143.8 23.2V0H93.1ZM54.9 1.8H60.4V19L54.9 12.5V1.8ZM54.1 11.6L49.1 5.7V1.8H54.1V11.6ZM73.4 8.9L67.7 1.8H73.4V8.9ZM66.8 12.7L61.2 1.8H66.8V12.7ZM61.1 3.4L66.6 14.1C63.8 16.2 61.9 18.1 61.1 19V3.4ZM67.6 2.9L73.2 9.8C72.1 10.4 71 11.1 70.1 11.7C69.2 12.3 68.4 12.9 67.6 13.5V2.9ZM74.2 2.7L79 6.9C77.3 7.6 75.7 8.4 74.2 9.2V2.7ZM79.8 6.6L74.4 1.8H80.4V6.4C80.1 6.4 80 6.5 79.8 6.6ZM98.9 1.8H103.9L98.9 4.2V1.8ZM93.1 1.8H97.5L93.1 3.9V1.8ZM92.2 3.8L88 1.8H92.2V3.8ZM86.7 4.3L81.6 1.8H86.7V4.3ZM81.1 2.4L85.8 4.7C84.2 5.1 82.6 5.5 81.1 6V2.4ZM87.5 2.4L90.9 4C89.7 4.1 88.6 4.2 87.4 4.4V2.4H87.5ZM97.9 2.5V4.4C96.8 4.2 95.7 4.1 94.5 4L97.9 2.5ZM104.4 2.4V6.1C102.9 5.6 101.3 5.1 99.6 4.7L104.4 2.4ZM105.1 1.8H111L105.6 6.6C105.4 6.5 105.3 6.5 105.1 6.4V1.8ZM118.7 1.8H124.3L118.7 12.7V1.8ZM112.1 1.8H117.8L112.1 8.8V1.8ZM111.3 2.7V9.2C109.8 8.4 108.2 7.6 106.5 6.9L111.3 2.7ZM117.9 2.9V13.4C117.2 12.9 116.4 12.4 115.6 11.8C114.6 11.1 113.4 10.4 112.2 9.7L117.9 2.9ZM124.3 3.4V18.6C123.2 17.6 121.4 15.9 118.8 14L124.3 3.4ZM125.1 19.4V1.8H130.6V13.2L125.1 19.4C125.2 19.5 125.1 19.5 125.1 19.4ZM131.4 1.8H136.4V6.5L131.4 12.3V1.8ZM48.4 1.8V4.7L45.9 1.8H48.4ZM61.2 20L61.3 20.1C61.3 20.1 64.9 16.2 70.5 12.5C75.8 9 83.8 4.9 92.8 5C101.7 5 109.9 9.2 115.1 12.7C120.7 16.4 124.4 20.2 124.5 20.3L120.6 24.8C113.7 25.7 108.7 30.9 102 29.8C98.6 29.2 98.5 27.3 97.5 25.3C96.8 23.8 95.6 24 94 23.4C92.6 22.8 91.7 21.7 88.8 22.3C86.3 22.9 86 26.8 82.8 26.6C81.1 26.5 81 24.1 78.6 21.1C72.3 13.5 66.4 14.6 62.4 21.6L92.7 57.5L61.2 20ZM137.1 5.5V1.8H140.3L137.1 5.5Z" fill="#491213"/>
<path d="M88.7 70.9L92.8 64.4L96.8 70.9L92.8 77.4L88.7 70.9Z" fill="#23A9E1"/>
<path d="M65.5 32.3C66 32.9 66.4 33.6 66.3 34.4C66.2 35 65.4 36 66 36.2C66.7 35.3 67.5 34.3 68.2 33.4C67.6 33.2 62.8 27.6 62.8 26.9C61.7 27.5 60.7 28.1 59.6 28.6C59.8 29.3 60.9 28.6 61.5 28.6C62.3 28.7 62.9 29.2 63.5 29.8C61.8 31.2 57.6 34.8 57.1 34.9C56.9 34.9 56 34.3 56 34.8C56 35.1 56.9 35.8 57 36C57.7 36.9 58.5 37.8 59.2 38.7C59.8 38.4 59.1 38 59.4 37.5C59.7 37.1 64.3 33.2 65.5 32.3Z" fill="white"/>
<path d="M60.2 25.3C60.6 25.2 60.8 25.7 61.2 25.2C60.4 24.2 59.6 23.3 58.8 22.3C58.4 21.9 58 21.4 58.1 22.3C58.2 22.9 52 28 51.6 28.1C51.1 28.3 50.8 27.7 50.5 28.2C51.2 29.1 52 29.9 52.7 30.8C52.9 31.1 53.2 31.4 53.4 31.7C53.7 32 53.6 31 53.6 31.1C53.5 30.6 54.1 30.2 54.5 29.9C56 28.6 59.8 25.3 60.2 25.3Z" fill="white"/>
<path d="M51.4 24.4C49.6 24.9 47.7 24.2 47.2 22.4C46.7 20.6 47.8 18.6 49.3 17.6C50.7 16.6 52.9 16.6 53.7 18.4C54 19.2 53.9 20.1 53.6 20.9C53.4 21.4 53 21.9 53.7 22.2C54.6 21.1 55.4 20 56.3 18.9C55.2 18.3 54.8 17.2 54 16.3C53.1 15.2 51.9 14.2 50.5 14C47.6 13.6 44.9 16.6 44.7 19.2C44.6 20.7 45.1 22 45.9 23.2C46.7 24.2 47.8 24.8 48.3 26C48.6 26.1 51 25 51.6 24.7C51.5 24.6 51.5 24.5 51.4 24.4C50.7 24.6 51.4 24.4 51.4 24.4Z" fill="white"/>
<path d="M90.7 60.8C89.5 60 86.7 56.1 86.1 55.5C86 55.4 85.9 55.2 85.8 55.1C85.8 55.1 85.5 55.3 85.6 55.3C85.4 55.4 85.7 55.9 85.5 56.2C84.7 57.4 79.7 61.2 79.5 61.4C78.9 61.8 78.3 61.2 78 61.7C78.7 62.6 80.8 65.2 81 65.3C81.5 65.4 81.1 64.5 81.2 64.3C81.3 63.9 83.8 61.9 84.7 61.1C85 60.8 85.4 61.5 85.6 61.8C85.9 62.3 86.1 62.8 85.9 63.4C85.8 63.8 85.2 64.3 85.6 64.6C86.2 63.9 88 61.8 88.2 61.6C88.5 61.3 87.6 61.6 87.7 61.5C87.3 61.7 87 61.7 86.6 61.5C86.5 61.4 85.5 60.4 85.6 60.3C86 59.9 86.6 59.3 87.1 59.2C88 59 88.7 60.7 88.8 61.3C88.9 61.9 88.9 62.5 88.7 63.1C88.6 63.5 88.2 63.8 88.7 64C89.4 63 90.1 62.1 90.8 61.1C91 60.9 90.8 60.8 90.7 60.8C90.6 60.7 90.9 60.8 90.7 60.8Z" fill="white"/>
<path d="M80.5 56.6C82.7 54.7 83 51.5 81.3 49.3C79.4 46.8 75.9 46.2 73.5 48.2C71.3 50.1 71 53.2 72.7 55.5C74.7 58.2 77.9 58.5 80.5 56.6C81.7 55.7 80.4 56.7 80.5 56.6ZM80 51.9C79.4 53.4 77.8 55 76.3 55.6C74.5 56.3 73.2 54.8 73.9 53C74.6 51.5 76.1 49.9 77.6 49.3C79.5 48.6 80.7 50.2 80 51.9C79.6 52.8 80.1 51.7 80 51.9Z" fill="white"/>
<path d="M74.1 42C74.6 42.1 75 42.5 75.4 42C74.7 41.1 73.9 40.2 73.2 39.4C72.6 39.7 73.2 39.9 73 40.4C72.8 40.8 70.4 41.2 69.8 41.3C70 40.7 70.7 38.7 71 38.5C71.5 38.1 71.9 38.9 72.3 38.4C71.4 37.3 70.5 36.2 69.6 35.1C69.3 34.7 69 34.1 68.6 34.4C68.6 34.4 68.6 35.9 68.5 36.1C68.4 36.3 67.6 39.7 66.6 40.6C66.1 41 64.4 42.5 63.9 42.7C63.4 42.9 63.1 42.1 62.7 42.7C63.5 43.7 64.4 44.7 65.2 45.7C65.3 45.8 65.8 46.6 66 46.6C66.5 46.7 66.1 45.7 66.1 45.5C66.3 45.1 68.6 42.8 69.6 42.6C70.8 42.4 72.6 41.9 74.1 42C74.4 42.1 73.7 42 74.1 42Z" fill="white"/>
<path d="M67.8 22.9C63.8 22.7 65.4 18.9 68.2 18.1C70.8 17.3 76.3 19.8 78 21.5C75.2 22.4 71.6 22.2 68.6 22.4C68.4 19.2 67.6 20.3 67.8 22.9Z" fill="#DC6243"/>
<path d="M77.3 35.4C68.7 35.3 74.5 22.1 77.4 22.9C80.8 24 80.4 35.5 77.3 35.4Z" fill="#DC6243"/>
<path d="M83.4 31.1C82.6 33.6 81 34.1 81.2 31C81.4 27.5 83.7 28.3 86.1 27C88.1 25.9 89.2 21.8 92.7 24.2C94.3 25.3 96.1 24.4 96.6 26C96.6 25.9 92.1 36.3 94.6 36.3C89.6 36.3 91.8 30.4 93.7 26.4C91.9 27.3 88.9 33.1 91.3 34C90 35.7 86.1 37.9 84.1 36.3C82.6 35.2 83.4 33.1 83.4 31.1Z" fill="#DC6243"/>
<path d="M87.5 40.7C84 41.7 79.4 39.5 85 38.4C88.5 37.7 92.2 39.1 87.5 40.7C87.6 40.7 87.4 40.7 87.5 40.7Z" fill="#DC6243"/>
<path d="M91.9 40.6C91.2 38.9 92.5 37 94.6 38.4C96.4 39.6 93.7 41.5 91.9 40.6Z" fill="#DC6243"/>
<path d="M88.9 45.2C86.5 44.5 78.4 44.6 83.7 42.4C85.4 41.8 93.9 42.6 88.9 45.2Z" fill="#DC6243"/>
<path d="M99.4 48.5C98 47.3 96.5 47.2 95.2 48.5C93.4 45.2 86.9 46.3 83.8 45.8C85.4 49.9 98.6 50.7 99.4 48.5Z" fill="#DC6243"/>
<path d="M97.5 51C94.3 50.9 90.8 50.4 87.9 51.1C89.8 51.6 94.3 52.9 90.1 54C91.6 56.2 94.1 56 95.7 54.1C95 53.8 94.7 53.4 94.1 53C95.7 52.7 97.3 51.8 97.5 51Z" fill="#DC6243"/>
<path d="M101.1 47.1C95.8 44 97.1 41.7 101.5 39.5C103.8 38.4 108.8 34.3 110.9 35.6C107.6 39.5 104.3 43.3 101.1 47.1Z" fill="#DC6243"/>
<path d="M97.3 39.8C92.8 35.2 104 35.6 105.8 34C107.1 34.4 116.6 25.7 118.9 26.3C117.2 28.2 113.7 34.4 111.1 34.4C109.1 34.4 107.1 34.1 105.6 35.5C103.4 37.6 99.7 38.6 97.3 39.8Z" fill="#F49774"/>
<path d="M98.8 34.2C96.3 35.5 94 30.3 98.3 30.8C101.1 31.1 104 30.6 106.6 31C104.6 33.3 101.9 34.6 98.8 34.2Z" fill="#F4B1A4"/>
<path d="M111.4 52.5C111.6 53.1 111.7 53.8 111.6 54.5C111.5 55.4 110.6 57.4 109.4 56.8C108.2 56.2 107.2 55.1 106.2 54.2C107 53.3 107.7 52.5 109.1 52.9C109.5 53 109.8 52.9 109.4 52.6C109 52.4 106.3 50.6 106.1 50.8C105.8 51.1 106.6 51.7 106.3 52.3C106.1 52.7 105.7 53.1 105.4 53.5C104.7 52.9 103.5 52.2 104.3 51.2C104.8 50.5 105.6 50 106.4 49.9C107 49.8 108.2 50.3 108.4 49.7C107.3 49.2 106.2 48.7 105.1 48.1C105.3 48.9 101.8 52.6 101 53.6C100.9 53.7 100.3 54.2 100.3 54.4C100.3 54.8 100.9 54.5 101 54.5C101.5 54.3 107.8 59.6 108 60C108.1 60.3 107.8 60.6 108 60.7C108 60.7 108.2 60.9 108.3 60.9C108.7 60.4 112.8 54.9 113.7 54.7C112.9 53.5 112.1 52.3 111.3 51C110.7 51.3 111.3 52 111.4 52.5Z" fill="white"/>
<path d="M105.2 59.2C103.1 57.9 99.6 60.5 99.1 60.7C98.1 61.2 97.3 60.2 97.8 59.2C98.3 58.4 99.2 58 100.1 57.9C100.4 57.9 101.4 58.1 101.6 57.9C101.7 57.7 101.8 57.7 101.6 57.6C100.7 57 99.9 56.4 99 55.9C98.8 57 97.6 57.6 96.9 58.3C96.1 59.2 95.4 60.2 95.4 61.5C95.4 62.6 96.1 63.6 97.1 64.2C98.2 64.8 99.4 64.3 100.4 63.7C101 63.3 101.7 62.8 102.3 62.5C103.3 62 104.6 62.4 104.3 63.8C104 64.9 102.9 65.9 101.9 66.1C101.3 66.3 100.6 66.2 100 66C99.6 65.9 99 65.3 98.8 65.9C100 66.7 101.1 67.6 102.3 68.4C102.4 67.6 102.8 67.3 103.4 66.8C104.1 66.2 104.8 65.5 105.4 64.7C106.6 63 107 60.6 105.2 59.2Z" fill="white"/>
<path d="M105.2 59.2C106.2 59.8 104.6 58.7 105.2 59.2V59.2Z" fill="white"/>
<path d="M141.9 19.6C141.2 20.3 133.5 17.3 132.9 16.8C132.6 16.7 132.6 15.5 132.2 16C131.8 16.5 131.4 17 131 17.5C130.6 18 130.2 18.5 129.7 19C129.4 19.3 129.2 19.5 129.7 19.7C130.5 19.3 135.1 27 134.7 28.2C134 28.6 127.8 23.1 127.6 22.8C127.5 22.7 127.9 21.8 127.4 21.9C127.2 21.9 126.7 22.8 126.5 23C126.2 23.4 125.9 23.7 125.6 24.1C125.9 24.6 126.1 24.1 126.6 24.1C127 24.2 128.4 25.4 128.8 25.8C128.1 25.8 126.1 25.9 125.9 25.9C125 26 125.5 25.2 124.9 25C124.1 25.9 123.4 26.8 122.6 27.8C122.2 28.3 121.7 28.9 121.3 29.4C121.2 29.5 121.3 29.4 121.3 29.5C121.6 29.8 121.4 29.7 121.9 29.5C122.4 29.3 128.5 34.4 128.7 34.7C129.1 35.1 128.5 35.7 129.1 35.9C129.7 35.2 130.3 34.4 130.9 33.7C131 33.6 131 33.6 130.9 33.5C130.5 33.1 130.4 33.7 129.9 33.7C129.4 33.6 125.5 30.3 124 29.1C125.8 29 131.3 28.8 132.2 28.8C132.5 28.8 133.3 29.7 133.3 30C133.2 30.4 132.8 30.6 133.4 30.8C133.9 30.2 134.4 29.7 134.9 29.1L135.1 28.8C135.2 28.7 135.2 28.7 135.3 28.5L135.5 28.3C135.9 27.8 137.3 26.3 137.1 26.2C136.6 25.8 136.4 26.7 135.8 26.1C135.5 25.9 134.6 24.3 134.4 23.9C134.1 23.5 135 23 135.4 22.8C136.2 22.3 138.6 21.6 138.9 23.1C138.9 23.4 138.6 23.6 138.8 23.8C138.8 23.8 139 24 139.1 24C139.3 23.8 141.5 21.2 142.4 20C142.1 19.8 142 19.7 141.9 19.6ZM134.5 21.8C134.6 21.8 134.7 21.7 134.5 21.8C134.2 22 133.8 22.3 133.5 22.6C133 21.7 132.5 20.8 131.9 19.9C133.1 20.4 134.3 20.9 135.4 21.4C135.2 21.5 134.9 21.6 134.5 21.8Z" fill="white"/>
<path d="M124.8 33C122.4 31 119.2 31.6 117.2 33.8C115.3 36.1 115.5 39.5 117.8 41.4C120.1 43.3 123.5 42.8 125.4 40.6C127.3 38.3 127.2 34.9 124.8 33ZM124.5 39.6C124.5 39.6 124.5 39.7 124.5 39.6C123.2 40.9 121.1 39.7 120 38.9C118.9 38.1 116.9 36.3 118.1 34.8C119.2 33.5 121.2 34.6 122.3 35.3C123.5 36.1 125.7 37.9 124.6 39.5C124.7 39.4 124.7 39.4 124.5 39.6Z" fill="white"/>
<path d="M124.8 33C126 34 124.5 32.8 124.8 33V33Z" fill="white"/>
<path d="M124.5 39.7C124.5 39.6 124.5 39.6 124.5 39.7C124.6 39.6 124.6 39.6 124.6 39.6C124.5 39.6 124.5 39.7 124.5 39.7Z" fill="white"/>
<path d="M118.2 42.1C118.3 42.2 118.5 42.4 118.2 42.1C115.3 39.9 111.9 40.5 109.7 43.2C108.7 44.4 107.7 45.6 106.7 46.8C107.1 47.3 107.5 46.7 108 47C108.4 47.3 114.2 52.1 114.3 52.4C114.5 52.9 114 52.9 114.4 53.3C114.6 53.4 118.9 48.1 119.3 47.1C120.2 45.3 119.6 43.4 118.2 42.1ZM116.9 48.9C116.7 49.2 116.9 49 116.2 49.6C115.9 49.9 109.8 44.9 110 44.7C110.8 43.8 112.6 43.1 113.6 43.4C115.8 43.9 118.8 46.6 116.9 48.9Z" fill="white"/>
</svg>
